icons/1_Primary/Zapier.svg

<svg xmlns="http://www.w3.org/2000/svg" width="1024" height="1024" fill="none">
   <g clip-path="url(#a)">
      <path fill="#F8C18C" d="M512 1024c282.77 0 512-229.23 512-512S794.77 0 512 0 0 229.23 0 512s229.23 512 512 512Z"/>
      <path fill="#fff" d="m317.9 543.29-.1-.33 65.09-59.58v-28.71H278.46v28.71h62.37l.1.28-64.45 59.64V572h107.45v-28.71H317.9ZM448 451.93c-12.047 0-21.863 1.816-29.45 5.45a38.647 38.647 0 0 0-17.09 15 54.523 54.523 0 0 0-7.14 21.62l31.68 4.47c1.147-6.754 3.44-11.537 6.88-14.35a20.995 20.995 0 0 1 13.62-4.21c6.427 0 11.093 1.72 14 5.16 2.87 3.44 4.33 8.2 4.33 14.47v3.13h-30.48c-15.507 0-26.647 3.436-33.42 10.31-6.773 6.873-10.153 15.95-10.14 27.23 0 11.553 3.38 20.15 10.14 25.79 6.76 5.64 15.263 8.443 25.51 8.41 12.707 0 22.483-4.374 29.33-13.12a48.766 48.766 0 0 0 8.48-18.07h1.15l4.37 28.71h28.71v-72.7c0-15.027-3.96-26.667-11.88-34.92-7.92-8.254-20.787-12.38-38.6-12.38Zm10 89.62c-4.56 3.8-10.52 5.69-17.95 5.69-6.12 0-10.373-1.07-12.76-3.21a10.496 10.496 0 0 1-3.59-8.17 10.721 10.721 0 0 1 3-7.93 11.055 11.055 0 0 1 8.17-3h30v2a18.236 18.236 0 0 1-6.81 14.61l-.06.01Zm214-86.88h-33.86V572h33.92L672 454.67Zm200.25 0c-9.58 0-17.133 3.38-22.66 10.14-3.967 4.86-6.967 12.04-9 21.54h-1l-4.43-31.68h-29V572h33.92v-60.17c0-7.587 1.777-13.404 5.33-17.45 3.553-4.047 10.11-6.07 19.67-6.07H878v-33.64h-5.75Zm-99.73 3.84c-7.92-4.714-17.92-7.047-30-7-18.98 0-33.833 5.403-44.56 16.21-10.727 10.806-16.047 25.686-15.96 44.64a71.235 71.235 0 0 0 7.31 33.16 52.665 52.665 0 0 0 20.8 21.92c8.987 5.193 19.673 7.793 32.06 7.8 10.713 0 19.663-1.65 26.85-4.95a43.177 43.177 0 0 0 17.09-13.5 58.843 58.843 0 0 0 9.28-19.19l-29.22-8.18a26.999 26.999 0 0 1-6.88 11.9c-3.333 3.333-8.863 5-16.59 5-9.227 0-16.103-2.644-20.63-7.93-3.28-3.82-5.35-9.27-6.26-16.33h80c.33-3.3.5-6.07.5-8.3v-7.31a65.137 65.137 0 0 0-5.93-28.47 44.552 44.552 0 0 0-17.8-19.48l-.06.01Zm-30.94 20.92c13.753 0 21.553 6.766 23.4 20.3h-48.59a27.921 27.921 0 0 1 5.45-12.39c4.453-5.287 11.053-7.927 19.8-7.92l-.06.01Zm-86.17-72.05a18.998 18.998 0 0 0-13.87 5.33 18.374 18.374 0 0 0-5.45 13.75 18.667 18.667 0 0 0 1.282 7.5 18.661 18.661 0 0 0 10.537 10.531 18.666 18.666 0 0 0 7.501 1.279 18.34 18.34 0 0 0 13.75-5.45 18.925 18.925 0 0 0 5.31-13.86 18.24 18.24 0 0 0-19-19.06l-.06-.02Zm-70.06 44.08c-11.553 0-20.837 3.626-27.85 10.88-5.193 5.373-9.003 13.396-11.43 24.07H545l-4.43-31.68h-29v151h33.92v-62.2h1.24a63.399 63.399 0 0 0 4.33 12 34.162 34.162 0 0 0 13.5 15.09 39.644 39.644 0 0 0 20 4.83c14.2 0 25.013-5.53 32.44-16.59 7.427-11.06 11.14-26.494 11.14-46.3 0-19.127-3.593-34.1-10.78-44.92-7.187-10.82-17.837-16.217-31.95-16.19l-.06.01Zm3.44 85c-3.953 5.733-10.143 8.6-18.57 8.6a21.876 21.876 0 0 1-18.19-8.3c-4.393-5.514-6.583-13.06-6.57-22.64v-2.22c0-9.734 2.19-17.184 6.57-22.35 4.38-5.167 10.443-7.724 18.19-7.67 8.573 0 14.803 2.723 18.69 8.17 3.887 5.446 5.83 13.04 5.83 22.78 0 10.073-1.97 17.96-5.91 23.66l-.04-.03Zm-325.5 6.81H146V572h117.35l-.06-28.73Z"/>
   </g>
   <defs>
      <clipPath id="a">
         <path fill="#fff" d="M0 0h1024v1024H0z"/>
      </clipPath>
   </defs>
</svg>

<svg width="1024" height="1024" viewBox="0 0 1024 1024" fill="none" xmlns="http://www.w3.org/2000/svg">
<g clip-path="url(#clip0_2_4017)">
<path d="M512 1024C794.77 1024 1024 794.77 1024 512C1024 229.23 794.77 0 512 0C229.23 0 0 229.23 0 512C0 794.77 229.23 1024 512 1024Z" fill="#F8C18C"/>
<path d="M317.9 543.29L317.8 542.96L382.89 483.38V454.67H278.46V483.38H340.83L340.93 483.66L276.48 543.3V572H383.93V543.29H317.9ZM448 451.93C435.953 451.93 426.137 453.746 418.55 457.38C411.478 460.553 405.524 465.779 401.46 472.38C397.585 479.004 395.152 486.371 394.32 494L426 498.47C427.147 491.716 429.44 486.933 432.88 484.12C436.79 481.171 441.608 479.682 446.5 479.91C452.927 479.91 457.593 481.63 460.5 485.07C463.37 488.51 464.83 493.27 464.83 499.54V502.67H434.35C418.843 502.67 407.703 506.106 400.93 512.98C394.157 519.853 390.777 528.93 390.79 540.21C390.79 551.763 394.17 560.36 400.93 566C407.69 571.64 416.193 574.443 426.44 574.41C439.147 574.41 448.923 570.036 455.77 561.29C459.812 555.916 462.7 549.763 464.25 543.22H465.4L469.77 571.93H498.48V499.23C498.48 484.203 494.52 472.563 486.6 464.31C478.68 456.056 465.813 451.93 448 451.93ZM458 541.55C453.44 545.35 447.48 547.24 440.05 547.24C433.93 547.24 429.677 546.17 427.29 544.03C426.128 543.015 425.204 541.757 424.584 540.345C423.963 538.933 423.662 537.402 423.7 535.86C423.635 534.403 423.868 532.949 424.384 531.586C424.899 530.222 425.688 528.978 426.7 527.93C427.788 526.903 429.073 526.108 430.478 525.592C431.882 525.077 433.376 524.851 434.87 524.93H464.87V526.93C464.931 529.724 464.348 532.495 463.168 535.028C461.987 537.562 460.239 539.789 458.06 541.54L458 541.55ZM672 454.67H638.14V572H672.06L672 454.67ZM872.25 454.67C862.67 454.67 855.117 458.05 849.59 464.81C845.623 469.67 842.623 476.85 840.59 486.35H839.59L835.16 454.67H806.16V572H840.08V511.83C840.08 504.243 841.857 498.426 845.41 494.38C848.963 490.333 855.52 488.31 865.08 488.31H878V454.67H872.25ZM772.52 458.51C764.6 453.796 754.6 451.463 742.52 451.51C723.54 451.51 708.687 456.913 697.96 467.72C687.233 478.526 681.913 493.406 682 512.36C681.728 523.841 684.236 535.217 689.31 545.52C693.953 554.701 701.184 562.322 710.11 567.44C719.097 572.633 729.783 575.233 742.17 575.24C752.883 575.24 761.833 573.59 769.02 570.29C775.777 567.324 781.661 562.676 786.11 556.79C790.346 551.011 793.491 544.508 795.39 537.6L766.17 529.42C764.942 533.913 762.572 538.013 759.29 541.32C755.957 544.653 750.427 546.32 742.7 546.32C733.473 546.32 726.597 543.676 722.07 538.39C718.79 534.57 716.72 529.12 715.81 522.06H795.81C796.14 518.76 796.31 515.99 796.31 513.76V506.45C796.504 496.634 794.477 486.902 790.38 477.98C786.55 469.838 780.344 463.047 772.58 458.5L772.52 458.51ZM741.58 479.43C755.333 479.43 763.133 486.196 764.98 499.73H716.39C717.163 495.215 719.035 490.96 721.84 487.34C726.293 482.053 732.893 479.413 741.64 479.42L741.58 479.43ZM655.41 407.38C652.859 407.291 650.315 407.717 647.932 408.633C645.549 409.548 643.375 410.935 641.54 412.71C639.729 414.499 638.309 416.645 637.371 419.012C636.433 421.379 635.997 423.915 636.09 426.46C635.998 429.021 636.434 431.574 637.372 433.96C638.311 436.345 639.731 438.511 641.544 440.323C643.357 442.135 645.524 443.554 647.909 444.491C650.295 445.428 652.848 445.863 655.41 445.77C657.955 445.866 660.491 445.431 662.859 444.492C665.226 443.554 667.372 442.133 669.16 440.32C670.934 438.487 672.319 436.314 673.232 433.932C674.144 431.551 674.565 429.009 674.47 426.46C674.586 423.931 674.175 421.406 673.262 419.045C672.349 416.684 670.954 414.539 669.167 412.746C667.38 410.953 665.239 409.552 662.881 408.631C660.523 407.711 657.999 407.292 655.47 407.4L655.41 407.38ZM585.35 451.46C573.797 451.46 564.513 455.086 557.5 462.34C552.307 467.713 548.497 475.736 546.07 486.41H545L540.57 454.73H511.57V605.73H545.49V543.53H546.73C547.766 547.665 549.217 551.686 551.06 555.53C553.932 561.808 558.638 567.07 564.56 570.62C570.685 573.962 577.584 575.628 584.56 575.45C598.76 575.45 609.573 569.92 617 558.86C624.427 547.8 628.14 532.366 628.14 512.56C628.14 493.433 624.547 478.46 617.36 467.64C610.173 456.82 599.523 451.423 585.41 451.45L585.35 451.46ZM588.79 536.46C584.837 542.193 578.647 545.06 570.22 545.06C566.747 545.221 563.285 544.552 560.121 543.109C556.958 541.666 554.184 539.489 552.03 536.76C547.637 531.246 545.447 523.7 545.46 514.12V511.9C545.46 502.166 547.65 494.716 552.03 489.55C556.41 484.383 562.473 481.826 570.22 481.88C578.793 481.88 585.023 484.603 588.91 490.05C592.797 495.496 594.74 503.09 594.74 512.83C594.74 522.903 592.77 530.79 588.83 536.49L588.79 536.46ZM263.29 543.27H146V572H263.35L263.29 543.27Z" fill="white"/>
</g>
<defs>
<clipPath id="clip0_2_4017">
<rect width="1024" height="1024" fill="white"/>
</clipPath>
</defs>
</svg>
